papirus/32x32/apps/gmail-offline.svg

<svg height="32" preserveAspectRatio="xMidYMid" viewBox="0 0 32 32" width="32" xmlns="http://www.w3.org/2000/svg" xmlns:xlink="http://www.w3.org/1999/xlink"><linearGradient id="a" gradientTransform="matrix(.13219746 0 0 .09003926 1.9763533 5.999997)" gradientUnits="userSpaceOnUse" x1="1.3210427" x2="211.76385" y1="127.76156" y2="127.76156"><stop offset="0" stop-opacity=".1"/><stop offset="1" stop-opacity=".2"/></linearGradient><path d="m28.25 26.999997h-24.4999999c-.95 0-1.75-.767688-1.75-1.733491v-17.5330183c0-.941038.775-1.7334905 1.75-1.7334905h24.4999999c.949999 0 1.75.7676886 1.75 1.7334905v17.5330183c0 .965803-.775 1.733491-1.75 1.733491z" fill="#e3e3e3"/><path d="m5.4984531 26.975379l10.4594279-8.2966.07489-.443143-10.7839462-7.656506-.0249628 16.026963z" fill="#231f20" opacity=".1"/><path d="m3.7440522 6c-.8495493 0-1.5471659.6055087-1.7090024 1.3867188-.0001275.0006157.0001269.00134 0 .00195-.03047.2308109-.031144.4082031-.031144.4082031v17.4550781c0 .960141.7719197 1.758961 1.7420925 1.74805h2.2579075v-19.2031281c0-.1169399-.0120524-.2234415-.0350358-.3183594-.1159429-.4995311-.7075803-1.0626729-1.3119224-1.4785125z" fill="#4f8cf6"/><path d="m27.654297 6c-.837779.2389962-1.673395.9620342-1.654297 1.7480469v19.2265621.025391h2.214844c1.009116 0 1.785156-.780301 1.785156-1.722656v-16.0292971-.375-1.1386719c0-.9658019-.800001-1.734375-1.75-1.734375z" fill="#4f8cf6"/><path d="m21 27l-19-18 1.1269839-.0949622 12.9307471 9.1828852 13.9043-10.0552917v17.2440367c0 .935522-.773848 1.723332-1.747399 1.723332z" fill="url(#a)"/><path d="m28.046875 6c-.450588-.00502-.889669.1246819-1.246094.4003906l-10.800781 8.0996094-10.8007812-8.0996094c-2.0232367-1.542742-4.39931035 1.7692362-2.3984376 3.1992188l11.9999998 8.9999996c.710815.532486 1.687623.532486 2.398438 0l11.392912-8.544684.607088-.4553156c1.484143-1.0608736.77164-3.5757581-1.152344-3.5996094z" fill="#4f8cf6" fill-rule="evenodd" overflow="visible"/><path d="m3.75 6c-.975 0-1.75.793337-1.75 1.734375v1c0-.941038.775-1.734375 1.75-1.734375h24.5c.949999 0 1.75.7685731 1.75 1.734375v-1c0-.9658019-.800001-1.734375-1.75-1.734375z" fill="#fff" opacity=".1"/><path d="m2 24.265625v1c0 .965803.8 1.734375 1.75 1.734375h24.5c.975 0 1.75-.768572 1.75-1.734375v-1c0 .965803-.775 1.734375-1.75 1.734375h-24.5c-.95 0-1.75-.768572-1.75-1.734375z" opacity=".3"/></svg>

<?xml version="1.0" encoding="UTF-8" standalone="no"?>
<svg
   xmlns:dc="http://purl.org/dc/elements/1.1/"
   xmlns:cc="http://creativecommons.org/ns#"
   xmlns:rdf="http://www.w3.org/1999/02/22-rdf-syntax-ns#"
   xmlns:svg="http://www.w3.org/2000/svg"
   xmlns="http://www.w3.org/2000/svg"
   xmlns:sodipodi="http://sodipodi.sourceforge.net/DTD/sodipodi-0.dtd"
   xmlns:inkscape="http://www.inkscape.org/namespaces/inkscape"
   width="32"
   height="32"
   viewBox="0 0 32 32"
   version="1.1"
   preserveAspectRatio="xMidYMid"
   id="svg2"
   inkscape:version="0.91 r13725"
   sodipodi:docname="gmail-offline.svg">
  <metadata
     id="metadata33">
    <rdf:RDF>
      <cc:Work
         rdf:about="">
        <dc:format>image/svg+xml</dc:format>
        <dc:type
           rdf:resource="http://purl.org/dc/dcmitype/StillImage" />
        <dc:title></dc:title>
      </cc:Work>
    </rdf:RDF>
  </metadata>
  <sodipodi:namedview
     pagecolor="#ffffff"
     bordercolor="#666666"
     borderopacity="1"
     objecttolerance="10"
     gridtolerance="10"
     guidetolerance="10"
     inkscape:pageopacity="0"
     inkscape:pageshadow="2"
     inkscape:window-width="1600"
     inkscape:window-height="849"
     id="namedview31"
     showgrid="false"
     inkscape:zoom="13.12"
     inkscape:cx="4.9646409"
     inkscape:cy="12.802303"
     inkscape:window-x="0"
     inkscape:window-y="30"
     inkscape:window-maximized="1"
     inkscape:current-layer="svg2" />
  <defs
     id="defs4">
    <linearGradient
       x1="1.3210427"
       y1="127.76156"
       x2="211.76385"
       y2="127.76156"
       id="linearGradient-1"
       gradientTransform="matrix(0.13219746,0,0,0.09003926,1.9763533,5.999997)"
       gradientUnits="userSpaceOnUse">
      <stop
         stop-color="#000000"
         stop-opacity="0.1"
         offset="0%"
         id="stop7" />
      <stop
         stop-color="#000000"
         stop-opacity="0.2"
         offset="100%"
         id="stop9" />
    </linearGradient>
  </defs>
  <g
     id="g4161">
    <path
       d="m 28.25,26.999997 -24.4999999,0 c -0.95,0 -1.75,-0.767688 -1.75,-1.733491 l 0,-17.5330183 c 0,-0.941038 0.775,-1.7334905 1.75,-1.7334905 l 24.4999999,0 c 0.949999,0 1.75,0.7676886 1.75,1.7334905 l 0,17.5330183 c 0,0.965803 -0.775,1.733491 -1.75,1.733491 l 0,0 z"
       id="path13"
       inkscape:connector-curvature="0"
       style="fill:#e3e3e3" />
    <path
       d="m 5.4984531,26.975379 10.4594279,-8.2966 0.07489,-0.443143 L 5.2488248,10.57913 5.223862,26.606093 5.4984531,26.975379 Z"
       id="path15"
       inkscape:connector-curvature="0"
       style="opacity:0.1;fill:#231f20" />
    <path
       sodipodi:nodetypes="scccsscsccs"
       inkscape:connector-curvature="0"
       id="path17"
       d="M 3.7440522,6 C 2.8945029,6 2.1968863,6.6055087 2.0350498,7.3867188 c -1.275e-4,6.157e-4 1.269e-4,0.00134 0,0.00195 -0.03047,0.2308109 -0.031144,0.4082031 -0.031144,0.4082031 l 0,17.4550781 c 0,0.960141 0.7719197,1.758961 1.7420925,1.74805 l 2.2579075,0 0,-19.2031281 C 6.0039058,7.679932 5.9918534,7.5734304 5.96887,7.4785125 5.8529271,6.9789814 5.2612897,6.4158396 4.6569476,6 Z"
       style="fill:#4f8cf6;fill-opacity:1" />
    <path
       sodipodi:nodetypes="ccccssccssc"
       inkscape:connector-curvature="0"
       id="path21"
       d="M 27.654297,6 C 26.816518,6.2389962 25.980902,6.9620342 26,7.7480469 L 26,26.974609 26,27 28.214844,27 C 29.22396,27 30,26.219699 30,25.277344 l 0,-16.0292971 0,-0.375 0,-1.1386719 C 30,6.7685731 29.199999,6 28.25,6 Z"
       style="fill:#4f8cf6;fill-opacity:1" />
    <path
       sodipodi:nodetypes="cccccssc"
       d="M 21,27 2,9 3.1269839,8.9050378 16.057731,18.087923 l 13.9043,-10.0552917 0,17.2440367 C 29.962031,26.21219 29.188183,27 28.214632,27 Z"
       id="path25"
       style="fill:url(#linearGradient-1)"
       inkscape:connector-curvature="0" />
    <path
       sodipodi:nodetypes="cccccccccc"
       inkscape:connector-curvature="0"
       id="path4243"
       d="M 28.046875,6 C 27.596287,5.99498 27.157206,6.1246819 26.800781,6.4003906 L 16,14.5 5.1992188,6.4003906 C 3.1759821,4.8576486 0.79990845,8.1696268 2.8007812,9.5996094 L 14.800781,18.599609 c 0.710815,0.532486 1.687623,0.532486 2.398438,0 L 28.592131,10.054925 29.199219,9.5996094 C 30.683362,8.5387358 29.970859,6.0238513 28.046875,6 Z"
       style="color:#000000;font-style:normal;font-variant:normal;font-weight:normal;font-stretch:normal;font-size:medium;line-height:normal;font-family:sans-serif;text-indent:0;text-align:start;text-decoration:none;text-decoration-line:none;text-decoration-style:solid;text-decoration-color:#000000;letter-spacing:normal;word-spacing:normal;text-transform:none;direction:ltr;block-progression:tb;writing-mode:lr-tb;baseline-shift:baseline;text-anchor:start;white-space:normal;clip-rule:nonzero;display:inline;overflow:visible;visibility:visible;opacity:1;isolation:auto;mix-blend-mode:normal;color-interpolation:sRGB;color-interpolation-filters:linearRGB;solid-color:#000000;solid-opacity:1;fill:#4f8cf6;fill-opacity:1;fill-rule:evenodd;stroke:none;stroke-width:4;stroke-linecap:round;stroke-linejoin:round;stroke-miterlimit:4;stroke-dasharray:none;stroke-dashoffset:0;stroke-opacity:1;color-rendering:auto;image-rendering:auto;shape-rendering:auto;text-rendering:auto;enable-background:accumulate" />
    <path
       id="path4251"
       d="M 3.75,6 C 2.775,6 2,6.793337 2,7.734375 l 0,1 C 2,7.793337 2.775,7 3.75,7 l 24.5,0 C 29.199999,7 30,7.7685731 30,8.734375 l 0,-1 C 30,6.7685731 29.199999,6 28.25,6 L 3.75,6 Z"
       style="opacity:0.1;fill:#ffffff;fill-opacity:1"
       inkscape:connector-curvature="0" />
    <path
       id="path4256"
       d="m 2,24.265625 0,1 C 2,26.231428 2.8,27 3.75,27 l 24.5,0 C 29.225,27 30,26.231428 30,25.265625 l 0,-1 C 30,25.231428 29.225,26 28.25,26 L 3.75,26 C 2.8,26 2,25.231428 2,24.265625 Z"
       style="opacity:0.3;fill:#000000;fill-opacity:1"
       inkscape:connector-curvature="0" />
  </g>
</svg>
